icon-themes/colibre_svg/cmd/lc_savebackground.svg

<svg viewBox="0 0 24 24" xmlns="http://www.w3.org/2000/svg"><path d="m5 2c-.554 0-1 .446-1 1v18c0 .554.446 1 1 1h14c.554 0 1-.446 1-1v-18c0-.554-.446-1-1-1zm0 1h14v18h-14z" fill="#808080"/><path d="m19 12-7 6-2-2-5 5h14z" fill="#4d82b8"/><path d="m5 3v18l5-5 2 2 7-6v-9z" fill="#fff"/><circle cx="9.5" cy="7.5" fill="#eac282" r="2.5"/><rect fill="#8959ab" height="8" rx="0" ry=".5" width="8" x="13" y="13"/><g fill="#fff"><path d="m14 14h6v3h-6z"/><path d="m15 18c-.554 0-1 .446-1 1v1c0 .554.446 1 1 1v-2h1v2h2c.554 0 1-.446 1-1v-1c0-.554-.446-1-1-1z"/></g></svg>

<svg viewBox="0 0 24 24" xmlns="http://www.w3.org/2000/svg">
 <path d="M 5,2 C 4.446,2 4,2.446 4,3 v 18 c 0,0.554 0.446,1 1,1 h 14 c 0.554,0 1,-0.446 1,-1 V 3 C 20,2.446 19.554,2 19,2 Z M 5,3 H 19 V 21 H 5 Z" fill="#808080"/>
 <path d="m 19,12 -7,6 -2,-2 -5,5 h 14 z" fill="#4d82b8"/>
 <path d="M 5 3 L 5 21 L 10 16 L 12 18 L 19 12 L 19 3 L 5 3 z " fill="#ffffff"/>
 <circle cx="9.5" cy="7.5" r="2.5" fill="#eac282"/>
 <rect y="13" x="13" height="8" rx="0" ry="0.5" width="8" fill="#8959ab"/>
 <rect y="14" x="14" width="6" height="3" fill="#ffffff"/>
 <path d="M 15 18 C 14.446 18 14 18.446 14 19 L 14 20 C 14 20.554 14.446 21 15 21 L 15 19 L 16 19 L 16 21 L 18 21 C 18.554 21 19 20.554 19 20 L 19 19 C 19 18.446 18.554 18 18 18 L 15 18 z " fill="#ffffff"/>
</svg>
